resources/svg/currency-btc-thin.svg

<svg xmlns="http://www.w3.org/2000/svg" viewBox="0 0 256 256" fill="currentColor"><path d="M162.27246,117.21094A39.99047,39.99047,0,0,0,140,44V24a4,4,0,0,0-8,0V43.99951l-24-.002V24a4,4,0,0,0-8,0V43.99658l-20.00586-.00146h-16a4,4,0,0,0,0,8h12v144h-12a4,4,0,0,0,0,8h16L100,203.99658V224a4,4,0,0,0,8,0V203.99707l24,.00147V224a4,4,0,0,0,8,0V203.999L152,204a44.00279,44.00279,0,0,0,10.27246-86.78906ZM172,84a32.03667,32.03667,0,0,1-32,32H83.99414V51.99512l19.97461.002c.01074,0,.02051.00293.03125.00293s.02051-.00293.03125-.00293l31.96533.00244L136,52l.00342-.00049L140,52A32.03667,32.03667,0,0,1,172,84ZM152,196l-68.00586-.00488V124H152a36,36,0,0,1,0,72Z"/></svg>

<svg xmlns="http://www.w3.org/2000/svg" viewBox="0 0 256 256" fill="currentColor"><path d="M162.3,117.2A40,40,0,0,0,140,44V24a4,4,0,0,0-8,0V44H108V24a4,4,0,0,0-8,0V44H64a4,4,0,0,0,0,8H76V196H64a4,4,0,0,0,0,8h36v20a4,4,0,0,0,8,0V204h24v20a4,4,0,0,0,8,0V204h12a44,44,0,0,0,10.3-86.8ZM172,84a32.1,32.1,0,0,1-32,32H84V52h56A32.1,32.1,0,0,1,172,84ZM152,196H84V124h68a36,36,0,0,1,0,72Z"/></svg>
